src/images/single-assets/ERA.svg

<svg width="96" height="96" viewBox="0 0 96 96" fill="none" xmlns="http://www.w3.org/2000/svg">
<g clip-path="url(#clip0_1759_1176)">
<ellipse cx="48" cy="47.9804" rx="48" ry="47.9804" fill="white"/>
<path fill-rule="evenodd" clip-rule="evenodd" d="M48.0011 0C74.5098 0 96 21.4902 96 47.9999C96 74.5096 74.5098 96 48.0011 96C21.4924 96 0 74.5096 0 47.9999C0 21.4902 21.4904 0 48.0011 0ZM48.0011 4.46593C72.0448 4.46593 91.536 23.957 91.536 48.0007C91.536 72.0444 72.0448 91.5356 48.0011 91.5356C23.9574 91.5356 4.46514 72.0436 4.46514 47.9999C4.46514 23.9562 23.9564 4.46435 47.9999 4.46435L48.0011 4.46593Z" fill="#F0B90B"/>
<path fill-rule="evenodd" clip-rule="evenodd" d="M19.5375 37.0905L14.907 28.9214H24.1449L19.5375 37.0905ZM51.0345 44.9609L36.6483 67.843L21.2471 41.69L28.2451 28.9214H81.2127L46.5448 85.9513L40.865 76.3464L65.146 37.3079H31.8282L37.6413 44.9609H51.0345Z" fill="#F0B90B"/>
</g>
<defs>
<clipPath id="clip0_1759_1176">
<rect width="96" height="96" fill="white"/>
</clipPath>
</defs>
</svg>

<svg xmlns="http://www.w3.org/2000/svg" width="96" height="96" fill="none"><g clip-path="url(#a)"><ellipse cx="48" cy="47.98" fill="#fff" rx="48" ry="47.98"/><path fill="#F0B90B" fill-rule="evenodd" d="M48.001 0C74.51 0 96 21.49 96 48S74.51 96 48.001 96 0 74.51 0 48 21.49 0 48.001 0m0 4.466c24.044 0 43.535 19.491 43.535 43.535S72.045 91.536 48.001 91.536 4.465 72.044 4.465 48 23.956 4.464 48 4.464z" clip-rule="evenodd"/><path fill="#F0B90B" fill-rule="evenodd" d="m19.538 37.09-4.631-8.169h9.238zm31.497 7.87L36.648 67.844l-15.4-26.153 6.997-12.769h52.968l-34.668 57.03-5.68-9.605 24.281-39.038H31.828l5.813 7.653z" clip-rule="evenodd"/></g><defs><clipPath id="a"><path fill="#fff" d="M0 0h96v96H0z"/></clipPath></defs></svg>
